X: 16
T: Trip to Farley
%R: reel
B: Kitty Bridges "Collection of Country Dances 1745" p.16
F: http://www.vwml.org/browse/browse-collections-dance-tune-books/browse-bridges1745
Z: 2015 John Chambers <jc:trillian.mit.edu>
M: C|
L: 1/8
K: D
% - - - - - - - - - - - - - - - - - - - - - - - - - - - - -
[|\
a2{g}Tf2 gefd | Adcd e/d/c/d/ eA |\
a2{g}Tf2 gefd | Ad c/d/e/c/ d2D2 |]\
[|\
Ad AG Fd AG | FA de Tf2 e2 |\
Ad AG Fd Ag | f/g/a Ac d2 D2 |]
% - - - - - - - - - - Dance description - - - - - - - - - -
%%center Trip to Farley
%%begintext align
%%   First man set to the 2d Woman
%% and turn .| His Partner the same
%% w.th the 2d Man :| Set four and turn
%% .| cross over and turn :|:
%%endtext

%%sep 1 1 500
%%sep 1 1 500

